storage/app/icons/phosphoricons/thin/bookmark-thin.svg

<svg xmlns="http://www.w3.org/2000/svg" fill="currentColor" viewBox="0 0 256 256"><path d="M184 36H72a12 12 0 0 0-12 12v176a4 4 0 0 0 6.12 3.39L128 188.72l61.89 38.67a4 4 0 0 0 2.11.61 4.06 4.06 0 0 0 1.94-.5A4 4 0 0 0 196 224V48a12 12 0 0 0-12-12M72 44h112a4 4 0 0 1 4 4v120.78l-57.89-36.17a4 4 0 0 0-4.24 0L68 168.78V48a4 4 0 0 1 4-4m58.11 136.61a4 4 0 0 0-4.24 0L68 216.78v-38.56l60-37.5 60 37.5v38.56Z"/></svg>

<svg xmlns="http://www.w3.org/2000/svg" viewBox="0 0 256 256" fill="currentColor"><path d="M184,36H72A12,12,0,0,0,60,48V224a4,4,0,0,0,6.12,3.39L128,188.72l61.89,38.67A4,4,0,0,0,192,228a4.06,4.06,0,0,0,1.94-.5A4,4,0,0,0,196,224V48A12,12,0,0,0,184,36ZM72,44H184a4,4,0,0,1,4,4V168.78l-57.89-36.17a4,4,0,0,0-4.24,0L68,168.78V48A4,4,0,0,1,72,44Zm58.11,136.61a4,4,0,0,0-4.24,0L68,216.78V178.22l60-37.5,60,37.5v38.56Z"/></svg>
